!!!OTL: ICH HAB MIR EINS ERWAEHLET
!!!ARE: Europa, Mitteleuropa, Deutschland, Thueringen; Sachsen
!!!SCT: E0591B
!!!YEM: Copyright 1995, estate of Helmut Schaffrath.
**kern
*ICvox
*Ivox
*M4/4
*k[f#]
*G:
{4d
=1
4g
4f#
4a
4g
=2
2cc
4b}
{8b
8cc
=3
4dd
4dd
8cc
8b
8cc
8dd
=4
2b
4r}
{8g
8b
=5
8b
8a
8a
8g
4f#}
{8a
8cc
=6
8cc
8b
8b
8a
4g}
{8g
8b
=7
4a
4g
4a
4b
=8
2.cc}
{8dd
8cc
=9
4b
4b
8a
8g
8a
8b
=10
2g
4r}
==
!!!AGN: Liebes - Lied
!!!ONB: ESAC (Essen Associative Code) Database: ERK1
!!!AMT: simple quadruple
!!!AIN: vox
!!!EED: Helmut Schaffrath
!!!EEV: 1.0
*-
